X: 5
T: Fred Finn's
R: reel
M: 4/4
L: 1/8
K: Dmaj
|:A3F ABde|fdec d2cd|BEE2 ~G3B|AFF2 dFAF|
~A3F ABde|fdec d2cd|BAGB ABde|faeg fdd2:|
|:fdad bdaf|dfaf gfed|fbba ~b3a|fbba fede|
fdad bdaf|dfaf gfed|BAGB ABde|faeg fdd2:|

